blockchains/aurora/logo.svg

<svg fill="none" height="250" viewBox="0 0 250 250" width="250" xmlns="http://www.w3.org/2000/svg" xmlns:xlink="http://www.w3.org/1999/xlink"><clipPath id="a"><path d="m0 0h250v250h-250z"/></clipPath><clipPath id="b"><path d="m0 0h250v250h-250z"/></clipPath><clipPath id="c"><path d="m0 0h250v250h-250z"/></clipPath><g clip-path="url(#a)"><g clip-path="url(#b)"><g clip-path="url(#c)"><path d="m125 250c69.036 0 125-55.964 125-125 0-69.0356-55.964-125-125-125-69.0356 0-125 55.9644-125 125 0 69.036 55.9644 125 125 125z" fill="#728ee6"/><g fill="#fff"><path d="m128.891 31.25v69.297l58.57 26.172z" fill-opacity=".602"/><path d="m128.891 31.25-58.5785 95.469 58.5785-26.172z"/><path d="m128.891 171.625v47.086l58.609-81.086z" fill-opacity=".602"/><path d="m128.891 218.711v-47.094l-58.5785-33.992z"/><path d="m128.891 160.727 58.57-34.008-58.57-26.157z" fill-opacity=".2"/><path d="m70.3125 126.719 58.5785 34.008v-60.165z" fill-opacity=".602"/></g></g></g></g></svg>

<svg width="250" height="250" viewBox="0 0 250 250" fill="none" xmlns="http://www.w3.org/2000/svg">
<g clip-path="url(#clip0_46_11530)">
<g clip-path="url(#clip1_46_11530)">
<g clip-path="url(#clip2_46_11530)">
<path d="M125 250C194.036 250 250 194.036 250 125C250 55.9644 194.036 0 125 0C55.9644 0 0 55.9644 0 125C0 194.036 55.9644 250 125 250Z" fill="#728EE6"/>
<path d="M128.891 31.25V100.547L187.461 126.719L128.891 31.25Z" fill="white" fill-opacity="0.602"/>
<path d="M128.891 31.25L70.3125 126.719L128.891 100.547V31.25Z" fill="white"/>
<path d="M128.891 171.625V218.711L187.5 137.625L128.891 171.625Z" fill="white" fill-opacity="0.602"/>
<path d="M128.891 218.711V171.617L70.3125 137.625L128.891 218.711Z" fill="white"/>
<path d="M128.891 160.727L187.461 126.719L128.891 100.562V160.727Z" fill="white" fill-opacity="0.2"/>
<path d="M70.3125 126.719L128.891 160.727V100.562L70.3125 126.719Z" fill="white" fill-opacity="0.602"/>
</g>
</g>
</g>
<defs>
<clipPath id="clip0_46_11530">
<rect width="250" height="250" fill="white"/>
</clipPath>
<clipPath id="clip1_46_11530">
<rect width="250" height="250" fill="white"/>
</clipPath>
<clipPath id="clip2_46_11530">
<rect width="250" height="250" fill="white"/>
</clipPath>
</defs>
</svg>
